Papirus/64x64/apps/partitionmanager.svg

<svg width="64" height="64" version="1.1" xmlns="http://www.w3.org/2000/svg">
 <rect x="10" y="5" width="42" height="56" rx="4.1999998" ry="4.5539999" style="opacity:.2"/>
 <rect x="10" y="4" width="42" height="56" rx="4.2" ry="4.554" style="fill:#e4e4e4"/>
 <path d="m20 6c-1.098756 0-2 0.8846258-2 2 0 2.226557-1.783816 4-4 4-1.098752 0-2 0.870466-2 2v3.5c0 1.366062 1.175766 2.5 2.5 2.5 1.96988 0 3.5 1.591204 3.5 3.5 0 0.976959-0.428329 1.846916-1 2.5-3.125734 3.570882-5 7.85924-5 12.5v0.722656c2.43e-4 10.370511 8.506761 18.777345 19 18.777344 10.493239 1e-6 18.999757-8.406833 19-18.777344 3.58e-4 -0.191434-0.0022-0.382863-0.0078-0.574218 4.42e-4 -0.05496 0.0078-0.092438 0.0078-0.148438 0-4.013864-1.873307-8.929402-5-12.5-0.637524-0.728035-1-1.56713-1-2.5 0-1.910938 1.568793-3.5 3.5-3.5 1.357377 0 2.5-1.144985 2.5-2.5v-3.5c0-1.114396-0.920292-2-2-2-2.217656 0-4-1.775386-4-4 0-1.0753332-0.900756-2-2-2zm-5.5 1c-0.828427 2e-7 -1.5 0.671573-1.5 1.5s0.671573 1.4999998 1.5 1.5c0.828427-2e-7 1.5-0.671573 1.5-1.5s-0.671573-1.4999998-1.5-1.5zm33 0c-0.828427 2e-7 -1.5 0.671573-1.5 1.5s0.671573 1.4999998 1.5 1.5c0.828427-2e-7 1.5-0.671573 1.5-1.5s-0.671573-1.4999998-1.5-1.5zm-33 15c-0.828427 0-1.5 0.671573-1.5 1.5s0.671573 1.5 1.5 1.5 1.5-0.671573 1.5-1.5-0.671573-1.5-1.5-1.5zm33 0c-0.828427 0-1.5 0.671573-1.5 1.5s0.671573 1.5 1.5 1.5 1.5-0.671573 1.5-1.5-0.671573-1.5-1.5-1.5zm-33 32c-0.828427 0-1.5 0.671573-1.5 1.5s0.671573 1.5 1.5 1.5 1.5-0.671573 1.5-1.5-0.671573-1.5-1.5-1.5zm33 0c-0.828427 0-1.5 0.671573-1.5 1.5s0.671573 1.5 1.5 1.5 1.5-0.671573 1.5-1.5-0.671573-1.5-1.5-1.5z" style="fill:#ababab"/>
 <path d="M 14.199219,4 C 11.872419,4 10,6.0318565 10,8.5546875 v 1 C 10,7.0318565 11.872419,5 14.199219,5 H 47.800781 C 50.127581,5 52,7.0318565 52,9.5546875 v -1 C 52,6.0318565 50.127581,4 47.800781,4 Z" style="fill:#ffffff;opacity:.2"/>
 <path d="m20 6c-1.084596 0-2 0.9058655-2 2 0 1.7949261-2.251091 4-4 4-1.119992 0-2 0.870466-2 2v1c0-1.101214 0.901248-2 2-2 2.223263 0 4-1.801518 4-4 0-1.1153743 0.915404-2 2-2h22c1.081168 0 2 0.888055 2 2 0 2.170576 1.781531 4 4 4 1.075639 0 2 0.882531 2 2v-1c0-1.100896-0.896739-2-2-2-2.256718 0-4-1.798824-4-4.0000005 0-1.1064207-0.924357-1.9999995-2-1.9999995zm-5.5 1c-0.828427 2e-7 -1.5 0.671573-1.5 1.5-1.74e-4 0.1709929 0.02889 0.3407567 0.08594 0.5019531 0.211212-0.6000376 0.777934-1.0015964 1.41406-1.0019531 0.635112-2.287e-4 1.201531 0.3995503 1.414062 0.9980469 0.05661-0.15996 0.085668-0.3283655 0.085938-0.4980469 0-0.828427-0.671573-1.4999998-1.5-1.5zm33 0c-0.828427 2e-7 -1.5 0.671573-1.5 1.5-1.74e-4 0.1709929 0.02889 0.3407567 0.08594 0.5019531 0.211212-0.6000376 0.777934-1.0015964 1.41406-1.0019531 0.635112-2.287e-4 1.201531 0.3995503 1.414062 0.9980469 0.05661-0.15996 0.085668-0.3283655 0.085938-0.4980469 0-0.828427-0.671573-1.4999998-1.5-1.5zm-33 15c-0.828427 0-1.5 0.671573-1.5 1.5-1.74e-4 0.170993 0.02889 0.340757 0.08594 0.501953 0.211212-0.600038 0.777934-1.001596 1.41406-1.001953 0.635112-2.29e-4 1.201531 0.39955 1.414062 0.998047 0.05661-0.15996 0.085668-0.328366 0.085938-0.498047 0-0.828427-0.671573-1.5-1.5-1.5zm33 0c-0.828427 0-1.5 0.671573-1.5 1.5-1.74e-4 0.170993 0.02889 0.340757 0.08594 0.501953 0.211212-0.600038 0.777934-1.001596 1.41406-1.001953 0.635112-2.29e-4 1.201531 0.39955 1.414062 0.998047 0.05661-0.15996 0.085668-0.328366 0.085938-0.498047 0-0.828427-0.671573-1.5-1.5-1.5zm-30.5 4c-3.08994 3.601899-4.992515 7.699758-5 12.5l2e-3 0.9375c0.019-4.777802 1.886042-8.882066 4.998-12.4375 0.584575-0.6675 1-2.195312 1-3.5 0 0.93025-0.372202 1.768185-1 2.5zm27-2.5c0 1.301126 0.442974 2.863889 1 3.5 3.112625 3.554547 4.977815 7.658034 4.998052 12.435581l0.001948-0.935581c-0.006814-3.894501-1.838695-8.960009-5-12.5-0.621608-0.696069-1-1.558058-1-2.5zm-29.5 30.5c-0.828427 0-1.5 0.671573-1.5 1.5-1.74e-4 0.170993 0.02889 0.340757 0.08594 0.501953 0.211212-0.600038 0.777934-1.001596 1.41406-1.001953 0.635112-2.29e-4 1.201531 0.39955 1.414062 0.998047 0.05661-0.15996 0.085668-0.328366 0.085938-0.498047 0-0.828427-0.671573-1.5-1.5-1.5zm33 0c-0.828427 0-1.5 0.671573-1.5 1.5-1.74e-4 0.170993 0.02889 0.340757 0.08594 0.501953 0.211212-0.600038 0.777934-1.001596 1.41406-1.001953 0.635112-2.29e-4 1.201531 0.39955 1.414062 0.998047 0.05661-0.15996 0.085668-0.328366 0.085938-0.498047 0-0.828427-0.671573-1.5-1.5-1.5z" style="opacity:.2"/>
 <path d="m31 26v9c-2.745123 0-5 2.283197-5 5h-9c0-7.90808 6.24454-14 14-14z" style="opacity:.2"/>
 <path d="m31 26v9c2.716803 0 5 2.226557 5 5h9c0-7.90808-6.244538-14-14-14z" style="opacity:.2"/>
 <path d="m31 54v-9c2.773443 0 5-2.254877 5-5h9c0 7.908077-6.244535 14-14 14z" style="opacity:.2"/>
 <path d="m31 54v-9c-2.773443 0-5-2.297357-5-5h-9c0 7.908077 6.24454 14 14 14z" style="opacity:.2"/>
 <circle cx="31" cy="40" r="2" style="fill:#010101;opacity:.2"/>
 <path d="m31 53v-9c2.773443 0 5-2.254877 5-5h9c0 7.908077-6.244535 14-14 14z" style="fill:#514694"/>
 <path d="m31 53v-9c-2.773443 0-5-2.297357-5-5h-9c0 7.908077 6.24454 14 14 14z" style="fill:#fecd38"/>
 <path d="m31 25v9c-2.745123 0-5 2.283197-5 5h-9c0-7.90808 6.24454-14 14-14z" style="fill:#4bae4f"/>
 <path d="m31 25v9c2.716803 0 5 2.226557 5 5h9c0-7.90808-6.244538-14-14-14z" style="fill:#248afd"/>
 <circle cx="31" cy="39" r="2" style="fill:#e4e4e4"/>
 <path d="m45 39s-1-13-14-13-14 13-14 13c0-8 6.268014-14 14-14s14 6 14 14z" style="fill:#ffffff;opacity:.2"/>
</svg>

<svg xmlns="http://www.w3.org/2000/svg" width="64" height="64" version="1.1">
 <rect style="opacity:0.2" width="42" height="56" x="10" y="5" rx="5" ry="5"/>
 <rect style="fill:#e4e4e4" width="42" height="56" x="10" y="4" rx="5" ry="5"/>
 <path style="fill:#ababab" d="M 14.5,7 A 1.5,1.5 0 0 0 13,8.5 1.5,1.5 0 0 0 14.5,10 1.5,1.5 0 0 0 16,8.5 1.5,1.5 0 0 0 14.5,7 Z M 47.5,7 A 1.5,1.5 0 0 0 46,8.5 1.5,1.5 0 0 0 47.5,10 1.5,1.5 0 0 0 49,8.5 1.5,1.5 0 0 0 47.5,7 Z M 14.5,22 A 1.5,1.5 0 0 0 13,23.5 1.5,1.5 0 0 0 14.5,25 1.5,1.5 0 0 0 16,23.5 1.5,1.5 0 0 0 14.5,22 Z M 47.5,22 A 1.5,1.5 0 0 0 46,23.5 1.5,1.5 0 0 0 47.5,25 1.5,1.5 0 0 0 49,23.5 1.5,1.5 0 0 0 47.5,22 Z M 14.5,54 A 1.5,1.5 0 0 0 13,55.5 1.5,1.5 0 0 0 14.5,57 1.5,1.5 0 0 0 16,55.5 1.5,1.5 0 0 0 14.5,54 Z M 47.5,54 A 1.5,1.5 0 0 0 46,55.5 1.5,1.5 0 0 0 47.5,57 1.5,1.5 0 0 0 49,55.5 1.5,1.5 0 0 0 47.5,54 Z M 20,6 C 18,6 18,8 18,8 18,10.227 16.216,12 14,12 12,12 12,14 12,14 V 17.5 C 12,18.866 13.176,20 14.5,20 16.47,20 18,21.591 18,23.5 18,24.477 17.572,25.347 17,26 13.874,29.571 12,33.859 12,38.5 V 39.223 C 12,49.593 20.507,58 31,58 41.493,58 50,49.593 50,39.223 V 38.5 C 50,34.486 48.127,29.571 45,26 44.362,25.272 44,24.433 44,23.5 44,21.589 45.569,20 47.5,20 47.5,20 50,20 50,18 V 14 C 50,14 50,12 48,12 45.782,12 44,10.225 44,8 44,8 44,6 42,6 Z"/>
 <path style="opacity:0.2" d="M 20,6 C 18,6 18,8 18,8 18,10.227 16.216,12 14,12 12,12 12,14 12,14 V 15 C 12,15 12,13 14,13 16.216,13 18,11.227 18,9 18,9 18,7 20,7 H 42 C 44,7 44,9 44,9 44,11.225 45.782,13 48,13 50,13 50,15 50,15 V 14 C 50,14 50,12 48,12 45.782,12 44,10.225 44,8 44,8 44,6 42,6 Z M 14.5,7 A 1.5,1.5 0 0 0 13,8.5 1.5,1.5 0 0 0 13.135,9 1.5,1.5 0 0 1 14.5,8 1.5,1.5 0 0 1 15.885,8.9316 1.5,1.5 0 0 0 16,8.5 1.5,1.5 0 0 0 14.5,7 Z M 47.5,7 A 1.5,1.5 0 0 0 46,8.5 1.5,1.5 0 0 0 46.135,9 1.5,1.5 0 0 1 47.5,8 1.5,1.5 0 0 1 48.885,8.9316 1.5,1.5 0 0 0 49,8.5 1.5,1.5 0 0 0 47.5,7 Z M 14.5,22 A 1.5,1.5 0 0 0 13,23.5 1.5,1.5 0 0 0 13.135,24 1.5,1.5 0 0 1 14.5,23 1.5,1.5 0 0 1 15.885,23.932 1.5,1.5 0 0 0 16,23.5 1.5,1.5 0 0 0 14.5,22 Z M 47.5,22 A 1.5,1.5 0 0 0 46,23.5 1.5,1.5 0 0 0 46.135,24 1.5,1.5 0 0 1 47.5,23 1.5,1.5 0 0 1 48.885,23.932 1.5,1.5 0 0 0 49,23.5 1.5,1.5 0 0 0 47.5,22 Z M 17.959,23.994 C 17.844,24.769 17.473,25.46 17,26 13.874,29.571 12,33.859 12,38.5 V 39.223 C 12,39.268 12.004,39.312 12.004,39.357 12.042,34.771 13.906,30.534 17,27 17.572,26.347 18,25.477 18,24.5 18,24.328 17.983,24.16 17.959,23.994 Z M 44.039,24 C 44.015,24.164 44,24.33 44,24.5 44,25.433 44.362,26.272 45,27 48.093,30.532 49.956,35.378 49.996,39.367 49.996,39.319 50,39.271 50,39.223 V 38.5 C 50,34.486 48.127,29.571 45,26 44.478,25.405 44.145,24.734 44.039,24 Z M 14.5,54 A 1.5,1.5 0 0 0 13,55.5 1.5,1.5 0 0 0 13.135,56 1.5,1.5 0 0 1 14.5,55 1.5,1.5 0 0 1 15.885,55.932 1.5,1.5 0 0 0 16,55.5 1.5,1.5 0 0 0 14.5,54 Z M 47.5,54 A 1.5,1.5 0 0 0 46,55.5 1.5,1.5 0 0 0 46.135,56 1.5,1.5 0 0 1 47.5,55 1.5,1.5 0 0 1 48.885,55.932 1.5,1.5 0 0 0 49,55.5 1.5,1.5 0 0 0 47.5,54 Z"/>
 <circle style="opacity:0.2" cx="31" cy="40" r="2"/>
 <path style="opacity:0.2" d="M 31,26 A 14,14 0 0 0 17,40 14,14 0 0 0 31,54 14,14 0 0 0 45,40 14,14 0 0 0 31,26 Z M 31,35 A 5,5 0 0 1 36,40 5,5 0 0 1 31,45 5,5 0 0 1 26,40 5,5 0 0 1 31,35 Z"/>
 <path style="fill:#248afd" d="M 36,39 V 40 L 45,39 Z M 31,25 V 34 H 30 Z M 31,25 V 34 A 5,5 0 0 1 36,39 H 45 A 14,14 0 0 0 31,25 Z"/>
 <path style="fill:#514694" d="M 31,44 V 53 L 30,44 Z M 36,39 A 5,5 0 0 1 31,44 V 53 A 14,14 0 0 0 45,39 Z"/>
 <path style="fill:#fecd38" d="M 17,39 26,38 V 39 Z M 17,39 A 14,14 0 0 0 31,53 V 44 A 5,5 0 0 1 26,39 Z"/>
 <path style="fill:#4bae4f" d="M 31,25 A 14,14 0 0 0 17,39 H 26 A 5,5 0 0 1 31,34 Z"/>
 <circle style="fill:#e4e4e4" cx="31" cy="39" r="2"/>
</svg>
